X:7
T:Bear Island reel
T:Ril Bheara
R:Reel
C:Finbar Dwyer
S:Richard Darsie's web page
Z:Transcription, chords:Mike Long
M:C|
L:1/8
K:D
"E"EB^GB "A"AGEc|"D"dBcA "E"Beec|"D"d2fd AFDE|"Bm"FEED EB,B,A,|\
"Em"B,EEF GFGA|
"(G)"B2GA Beef|"G"g2fg efge|"D"dBAF "E"E4:|\
|:"Em"Beed edBA|"Em"B2AG "D"FDDF|
"Em"EGBe gefd|"Em"e2"B"^df "Em"e2ef|\
"Em"edBc "D"d3c|"Bm"BcdB "D"AFDF|"G"GBB2 "D"AFDF|"Bm"FEED "Em"E4:|
